svg/pictureFill.svg

<svg width="280" height="280" viewBox="0 0 280 280" xmlns="http://www.w3.org/2000/svg">
    <path d="M90.5 42c.278 9.112.661 18.224.848 27.335a20.85 20.85 0 0 1 3.857-.372c11.46 0 20.752 9.291 20.752 20.752 0 11.462-9.292 20.753-20.752 20.753-.439 0-.868-.039-1.301-.065-.102 17.875.269 35.751.196 53.627l1.025-.867 31.246 24.998a5.67 5.67 0 0 0 7.566-.435l61.771-62.276 29.71 29.258v65.022H55.339v-22.901L94.1 164.03c.073-17.876-.298-35.752-.196-53.627-10.853-.675-19.452-9.665-19.452-20.688 0-10.141 7.28-18.57 16.896-20.38-.187-9.111-.57-18.223-.848-27.335H49.669A5.67 5.67 0 0 0 44 47.669v184.908a5.669 5.669 0 0 0 5.669 5.669h181.418a5.669 5.669 0 0 0 5.669-5.669V47.669A5.67 5.67 0 0 0 231.087 42H90.5z" fill="#1A1918" fill-rule="evenodd"/>
</svg>

<svg width="280" height="280" viewBox="0 0 280 280" fill="none" xmlns="http://www.w3.org/2000/svg">
<path fill-rule="evenodd" clip-rule="evenodd" d="M90.5 42C90.778 51.112 91.161 60.224 91.348 69.335C92.599 69.1 93.885 68.963 95.205 68.963C106.665 68.963 115.957 78.254 115.957 89.715C115.957 101.177 106.665 110.468 95.205 110.468C94.766 110.468 94.337 110.429 93.904 110.403C93.802 128.278 94.173 146.154 94.1 164.03L95.125 163.163L126.371 188.161C128.633 189.97 131.897 189.783 133.937 187.726L195.708 125.45L225.418 154.708V219.73H55.339V196.829L94.1 164.03C94.173 146.154 93.802 128.278 93.904 110.403C83.051 109.728 74.452 100.738 74.452 89.715C74.452 79.574 81.732 71.145 91.348 69.335C91.161 60.224 90.778 51.112 90.5 42H49.669C46.538 42 44 44.539 44 47.669V232.577C44 235.708 46.538 238.246 49.669 238.246H231.087C234.218 238.246 236.756 235.708 236.756 232.577V47.669C236.756 44.539 234.218 42 231.087 42H90.5Z" fill="#1A1919"/>
</svg>
